X: 21333
T: THE SOLDIER'S JOY; OR, MILANESE CONTRE DANCE
R: reel, hornpipe
B: K\"ohler's Violin Repository, v.2, 1885 p.133 #3
F: http://www.archive.org/details/klersviolinrepos02rugg
Z: 2012 John Chambers <jc:trillian.mit.edu>
M: C|
L: 1/8
K: D
u(dB) |\
AFDF AFDF | A2d2 d2(dB) | AFDF AFDF | G2E2 E2(dB) |
AFDF AFDF | A2d2 d2g2 | (fa)fd (eg)ec | d2f2 d2 :||: u(ag) |
(fe)fg (fa)gf | (ed)cd (ef)ge | (fe)fg (fa)gf | (ed)cB A2ag |
(fe)fg (fa)gf | (ed)cd (ef)ge | (fa)fd (eg)ec | d2f2 d2 :|

%%sep 2 1 500

